images/ring.svg

<svg height="250" viewBox="0 0 250 250" width="250" xmlns="http://www.w3.org/2000/svg" xmlns:xlink="http://www.w3.org/1999/xlink"><linearGradient id="a" gradientTransform="matrix(-250 0 0 -227.941406 250 250)" gradientUnits="userSpaceOnUse" x1="0" x2="1" y1=".5" y2=".5"><stop offset="0" stop-color="#929297"/><stop offset=".780357" stop-color="#88878d"/><stop offset="1" stop-color="#bab9c6"/></linearGradient><linearGradient id="b" gradientTransform="scale(250 227.941406)" gradientUnits="userSpaceOnUse" x1="0" x2="1" y1=".5" y2=".5"><stop offset="0" stop-color="#919fb7"/><stop offset="1" stop-color="#f8fafe"/></linearGradient><path d="m127.78125 214.382812c42.296875.175782 79.691406-21.050781 102.324219-53.269531 9.164062-13.042969 15.910156-27.921875 19.578125-43.980469.210937 2.949219.316406 5.925782.316406 8.925782 0 68.449218-55.355469 123.941406-123.636719 123.941406-74.191406 0-126.363281-51.34375-126.363281-114.683594 0-49.3125 31.628906-91.359375 76.011719-107.558594 10.785156-3.6875 21.808593-5.699218 33.296875-5.699218 53.371094 0 99.480468 43.371094 99.480468 96.875 0 9.191406-1.277343 18.085937-6.507812 26.511718 1.964844-5.199218 2.242188-9.054687 2.242188-12.976562 0-44.457031-37.367188-79.066406-81.714844-79.066406-44.34375 0-80.292969 36.035156-80.292969 80.488281 0 37.648437 25.78125 69.257813 60.613281 78.058594 7.097656 1.421875 14.355469 2.402343 24.652344 2.433593zm0 0" fill="url(#a)"/><path d="m122.21875 35.617188c-42.296875-.175782-79.691406 21.050781-102.324219 53.269531-9.164062 13.042969-15.910156 27.921875-19.578125 43.980469-.210937-2.949219-.316406-5.925782-.316406-8.925782 0-68.449218 55.355469-123.941406 123.636719-123.941406 74.191406 0 126.363281 51.34375 126.363281 114.683594 0 49.3125-31.628906 91.359375-76.011719 107.558594-10.785156 3.6875-21.808593 5.699218-33.296875 5.699218-53.371094 0-99.480468-43.371094-99.480468-96.875 0-9.191406 1.277343-18.085937 6.507812-26.511718-1.964844 5.199218-2.242188 9.054687-2.242188 12.976562 0 44.457031 37.367188 79.066406 81.714844 79.066406 44.34375 0 80.292969-36.035156 80.292969-80.488281 0-37.648437-25.78125-69.257813-60.613281-78.058594-7.097656-1.421875-14.355469-2.402343-24.652344-2.433593zm0 0" fill="url(#b)"/></svg>

<svg xmlns="http://www.w3.org/2000/svg" xmlns:xlink="http://www.w3.org/1999/xlink" width="250px" height="250px" viewBox="0 0 250 250" version="1.1">
<defs>
<linearGradient id="linear0" gradientUnits="userSpaceOnUse" x1="-0.000000000000000222" y1="0.5" x2="1" y2="0.5" gradientTransform="matrix(-250,0.000000000000030616,-0.000000000000027915,-227.941406,250,250)">
<stop offset="0" style="stop-color:rgb(57.254905%,57.254905%,59.215689%);stop-opacity:1;"/>
<stop offset="0.780357" style="stop-color:rgb(53.333336%,52.941179%,55.29412%);stop-opacity:1;"/>
<stop offset="1" style="stop-color:rgb(72.941178%,72.549021%,77.64706%);stop-opacity:1;"/>
</linearGradient>
<linearGradient id="linear1" gradientUnits="userSpaceOnUse" x1="-0.000000000000000111" y1="0.5" x2="1" y2="0.5" gradientTransform="matrix(250,0,0,227.941406,0,0)">
<stop offset="0" style="stop-color:rgb(56.862748%,62.352943%,71.764708%);stop-opacity:1;"/>
<stop offset="1" style="stop-color:rgb(97.254902%,98.039216%,99.607843%);stop-opacity:1;"/>
</linearGradient>
</defs>
<g id="surface1">
<path style=" stroke:none;fill-rule:nonzero;fill:url(#linear0);" d="M 127.78125 214.382812 C 170.078125 214.558594 207.472656 193.332031 230.105469 161.113281 C 239.269531 148.070312 246.015625 133.191406 249.683594 117.132812 C 249.894531 120.082031 250 123.058594 250 126.058594 C 250 194.507812 194.644531 250 126.363281 250 C 52.171875 250 0 198.65625 0 135.316406 C 0 86.003906 31.628906 43.957031 76.011719 27.757812 C 86.796875 24.070312 97.820312 22.058594 109.308594 22.058594 C 162.679688 22.058594 208.789062 65.429688 208.789062 118.933594 C 208.789062 128.125 207.511719 137.019531 202.28125 145.445312 C 204.246094 140.246094 204.523438 136.390625 204.523438 132.46875 C 204.523438 88.011719 167.15625 53.402344 122.808594 53.402344 C 78.464844 53.402344 42.515625 89.4375 42.515625 133.890625 C 42.515625 171.539062 68.296875 203.148438 103.128906 211.949219 C 110.226562 213.371094 117.484375 214.351562 127.78125 214.382812 Z M 127.78125 214.382812 "/>
<path style=" stroke:none;fill-rule:nonzero;fill:url(#linear1);" d="M 122.21875 35.617188 C 79.921875 35.441406 42.527344 56.667969 19.894531 88.886719 C 10.730469 101.929688 3.984375 116.808594 0.316406 132.867188 C 0.105469 129.917969 0 126.941406 0 123.941406 C 0 55.492188 55.355469 0 123.636719 0 C 197.828125 0 250 51.34375 250 114.683594 C 250 163.996094 218.371094 206.042969 173.988281 222.242188 C 163.203125 225.929688 152.179688 227.941406 140.691406 227.941406 C 87.320312 227.941406 41.210938 184.570312 41.210938 131.066406 C 41.210938 121.875 42.488281 112.980469 47.71875 104.554688 C 45.753906 109.753906 45.476562 113.609375 45.476562 117.53125 C 45.476562 161.988281 82.84375 196.597656 127.191406 196.597656 C 171.535156 196.597656 207.484375 160.5625 207.484375 116.109375 C 207.484375 78.460938 181.703125 46.851562 146.871094 38.050781 C 139.773438 36.628906 132.515625 35.648438 122.21875 35.617188 Z M 122.21875 35.617188 "/>
</g>
</svg>
